X:637
T:Reel 637
M:4/4
K:Amaj
L:1/8
 (3EFG |AA, (3A,A,A, F,A,E,A,|F,B,B,A, G,B,A,F,|G,2B,A, CEB,A||FEFG AcBG:||2FGAB A2|FE| (3FGA EC DFBB|AcBA GABG| (3cBA  (3BGG AFEC|A,CB,A, B,A,CE|A2 (3AGA F>E (3CDE |FAGB AFEC|DCB,A, G,B,B,D|CA,B,G, A,2|
